svg/600/outlined/airline_seat_legroom_reduced-fill.svg

<svg xmlns="http://www.w3.org/2000/svg" width="48" height="48" viewBox="0 -960 960 960"><path d="M562.304-113.782v-109L609.999-410H339.784q-43.098 0-72.942-30.172-29.843-30.171-29.843-72.612v-340.217h239.219v256.783h199.086q32.667 0 55.638 22.971 22.971 22.971 23.971 55.638L667.782-218.87h73.023q21.361 0 36.039 14.881 14.677 14.88 14.677 37.985 0 23.104-14.032 37.663-14.033 14.559-35.034 14.559H562.304Zm-95.305-153.217H173.782q-33.49 0-56.637-23.278-23.146-23.277-23.146-55.941v-506.783h73V-340h300v73.001Z"/></svg>

<svg xmlns="http://www.w3.org/2000/svg" width="48" height="48" viewBox="0 -960 960 960"><path d="M562.3-113.78v-109L610-410H339.78q-43.09 0-72.94-30.17Q237-470.34 237-512.78V-853h239.22v256.78H675.3q32.67 0 55.64 22.97t23.97 55.64l-87.13 298.74h73.02q21.37 0 36.04 14.88 14.68 14.88 14.68 37.99 0 23.1-14.03 37.66-14.03 14.56-35.03 14.56H562.3ZM467-267H173.78q-33.49 0-56.63-23.28Q94-313.55 94-346.22V-853h73v513h300v73Z"/></svg>
